symbols/web/toll/materialsymbolsrounded/toll_wght300_48px.svg

<svg xmlns="http://www.w3.org/2000/svg" height="48" width="48"><path d="M30 39q-6.3 0-10.65-4.35Q15 30.3 15 24q0-6.3 4.35-10.65Q23.7 9 30 9q6.3 0 10.65 4.35Q45 17.7 45 24q0 6.3-4.35 10.65Q36.3 39 30 39Zm-16.8-.85q-4.65-1.25-7.425-5.225Q3 28.95 3 24q0-4.95 2.775-8.925Q8.55 11.1 13.2 9.85q.55-.15.925.2t.375.9q0 .35-.25.65-.25.3-.55.4-3.85 1.2-6.15 4.525Q5.25 19.85 5.25 24q0 4.15 2.3 7.475Q9.85 34.8 13.7 36q.3.1.55.4.25.3.25.65 0 .6-.375.925-.375.325-.925.175ZM30 24Zm0 12.75q5.25 0 9-3.75t3.75-9q0-5.25-3.75-9t-9-3.75q-5.25 0-9 3.75t-3.75 9q0 5.25 3.75 9t9 3.75Z"/></svg>

<svg xmlns="http://www.w3.org/2000/svg" height="48" width="48"><path d="M30 39Q23.7 39 19.35 34.65Q15 30.3 15 24Q15 17.7 19.35 13.35Q23.7 9 30 9Q36.3 9 40.65 13.35Q45 17.7 45 24Q45 30.3 40.65 34.65Q36.3 39 30 39ZM13.2 38.15Q8.55 36.9 5.775 32.925Q3 28.95 3 24Q3 19.05 5.775 15.075Q8.55 11.1 13.2 9.85Q13.75 9.7 14.125 10.05Q14.5 10.4 14.5 10.95Q14.5 11.3 14.25 11.6Q14 11.9 13.7 12Q9.85 13.2 7.55 16.525Q5.25 19.85 5.25 24Q5.25 28.15 7.55 31.475Q9.85 34.8 13.7 36Q14 36.1 14.25 36.4Q14.5 36.7 14.5 37.05Q14.5 37.65 14.125 37.975Q13.75 38.3 13.2 38.15ZM30 24Q30 24 30 24Q30 24 30 24Q30 24 30 24Q30 24 30 24Q30 24 30 24Q30 24 30 24Q30 24 30 24Q30 24 30 24ZM30 36.75Q35.25 36.75 39 33Q42.75 29.25 42.75 24Q42.75 18.75 39 15Q35.25 11.25 30 11.25Q24.75 11.25 21 15Q17.25 18.75 17.25 24Q17.25 29.25 21 33Q24.75 36.75 30 36.75Z"/></svg>
